X: 11022
T: Dry And Dusty
R: reel
M: 4/4
K: Dmajor
dB|:"D"A2d2 fded|f2f2 edBd|A2d2 fded|[A2f2][a2A2] "A"[A2a2]dB|
"D"A2d2 fded|[A2f2][A2a2] [a2A2][Af][Ae]|dABc "G"dB"A"AG|"D"[F2A2][A2D2] [D2A2]dB:|
"D"A2[A2F2] [FA][EA][DA][AE]|[F2A2]A2 A2dB|A2F2 [GA][FA][EA][AD]|"C"E2[=C2E2] [C2E2]dB|
"D"A2[F2A2] [FA][EA][AD][EA]|[F2A2]A2 A2Bc|[D2d2][D2d2] "G"B2AG|"A7"[A2F2][E2A2] "D"[D2A2]||

